X:1
T:RVW2/1/105 Maria Martin
T:RVW2/1/105 Maria Martin
T:Transcribed by Simon Furey and Lewis Jones Sung by Burrage - 'Rushills', Capel, Surrey, April/August 1908 [2 of 5]
C:Transcribed by Simon Furey and Lewis Jones
C:Sung by Burrage - 'Rushills', Capel, Surrey, April/August 1908 [2 of 5]
L:1/8
Q:1/4=40
M:4/4
K:D
V:1 treble 
V:1
"^Editorial suggestion""^1st verse only" GF | E2 E2 EDEF | G4 A2 d2 | B3 A G2 F2 | E6 | B2 | %6
 B2 E2 E2 D2 | G4 A2 d2 | B3 A G2 F2 | E6 | Bc | d2 d2 d2 ed | d2 AG G2 G2 | A2 B2 c2 B2 | B6 | %15
 B2 | B2 E2 E2 D2 | G4 A2 d2 | B3 A G2 F2 | E6 |:"^all other verses" B2 | B2 E2 E2 D2 | G4 A2 d2 | %23
 B3 A G2 F2 | E6 :| Bc | d2 d2 d2 ed | d2 AG G2 G2 | A2 B2 c2 B2 | B6 | B2 | B2 E2 E2 D2 | %32
 G4 A2 d2 | B3 A G2 F2 | E6 |] %35

